X:33
T: Glory Sher
F: http://www.vwml.org.uk/record/CJS2/10/2336
S: Charles Benfield (68) at Bould. Sept 2nd /09
S: CJS2-10-2336
Z:transcribed by Andy Turner, Dec 2014
M:4/4
L:1/8
K:D
A2d2d2e2|f2e2d2B2|A2d2d2e2|d4d2z2|
d2e2f2g2|f4e4|c2d2e2f2|e4e2z2|d2e2f2g2|
a4a4|g2g2f2e2|d4d2 de|f2ed cdec|d4d2z2||
"^(B music of Leapfrog dance)"f2f2 fgaf|g2e2e2 fe|d2d2d2f2|edcB A4|
d2cB A2d2|e2dc d2e2|f2 ed c2e2|d4d4||

